!!!COM:	Josquin des Pres?
**kern	**kern
*part2	*part1
*staff2	*staff1
*clefF4	*clefG2
*k[]	*k[]
*M2/1	*M2/1
=1-	=1-
0E	0r
=2	=2
1G	0r
1G	.
=3	=3
1.A	0e
4G	.
4F	.
=4	=4
1E	1g
2r	1g
2E	.
=5	=5
2D	1.a
1F	.
4E	4g
4D	4f
=6	=6
1C	1e
4C	2r
4D	.
4E	2e
4F	.
=7	=7
2G	2d
1A	1f
4G	4e
4F	4d
=8	=8
1E	1c
4E	4c
4F	4d
4G	4e
4A	4f
=9	=9
2B	2.g
2c	.
.	4a
2B	2b
2A	2cc
=10	=10
2d	2b
2c	1a
1B	.
.	2g
=11	=11
0A	0a
==	==
*-	*-
